images/social_media/black/twitter_2.svg

<svg width="30" height="30" viewBox="0 0 30 30" fill="none" xmlns="http://www.w3.org/2000/svg">
<path d="M14.9821 0C17.0609 0 19.0084 0.394265 20.8244 1.1828C22.6404 1.97133 24.2294 3.04062 25.5914 4.39068C26.9534 5.74074 28.0287 7.32378 28.8172 9.13979C29.6057 10.9558 30 12.9032 30 14.9821C30 17.0609 29.6057 19.0084 28.8172 20.8244C28.0287 22.6404 26.9534 24.2294 25.5914 25.5914C24.2294 26.9534 22.6404 28.0287 20.8244 28.8172C19.0084 29.6057 17.0609 30 14.9821 30C12.9032 30 10.9558 29.6057 9.13979 28.8172C7.32378 28.0287 5.74074 26.9534 4.39068 25.5914C3.04062 24.2294 1.97133 22.6404 1.1828 20.8244C0.394265 19.0084 0 17.0609 0 14.9821C0 12.9032 0.394265 10.9558 1.1828 9.13979C1.97133 7.32378 3.04062 5.74074 4.39068 4.39068C5.74074 3.04062 7.32378 1.97133 9.13979 1.1828C10.9558 0.394265 12.9032 0 14.9821 0ZM22.4373 11.7563C23.1302 11.2306 23.7395 10.5974 24.2652 9.85663C23.9307 10 23.5902 10.1195 23.2437 10.2151C22.8973 10.3106 22.5329 10.3823 22.1505 10.4301C22.5329 10.1912 22.8674 9.89845 23.1541 9.55197C23.4409 9.2055 23.644 8.82915 23.7634 8.42294C23.405 8.6141 23.0346 8.78734 22.6523 8.94265C22.27 9.09797 21.8757 9.21147 21.4695 9.28315C21.135 8.94863 20.7407 8.67384 20.2867 8.45878C19.8327 8.24373 19.3309 8.1362 18.7814 8.1362C18.2796 8.1362 17.8076 8.23178 17.3656 8.42294C16.9235 8.6141 16.5412 8.87694 16.2186 9.21147C15.8961 9.546 15.6392 9.93429 15.448 10.3763C15.2569 10.8184 15.1613 11.2903 15.1613 11.7921C15.1613 11.9355 15.1673 12.0789 15.1792 12.2222C15.1912 12.3656 15.2091 12.497 15.233 12.6165C13.7276 12.5448 12.3298 12.1744 11.0394 11.5054C9.7491 10.8363 8.64994 9.94026 7.74194 8.8172C7.40741 9.36679 7.24014 9.97611 7.24014 10.6452C7.24014 11.2664 7.38949 11.8459 7.68817 12.3835C7.98686 12.9211 8.37515 13.3572 8.85305 13.6918C8.23178 13.644 7.6822 13.4887 7.2043 13.2258V13.2616C7.2043 14.1697 7.48507 14.9522 8.0466 15.6093C8.60812 16.2664 9.30705 16.6786 10.1434 16.8459C9.97611 16.8937 9.81482 16.9295 9.6595 16.9534C9.50418 16.9773 9.34289 16.9892 9.17563 16.9892C9.05615 16.9892 8.94265 16.9833 8.83513 16.9713C8.7276 16.9594 8.6141 16.9415 8.49462 16.9176C8.73357 17.6344 9.15771 18.2318 9.76703 18.7097C10.3763 19.1876 11.0872 19.4265 11.8996 19.4265C11.2784 19.9283 10.5795 20.3166 9.80287 20.5914C9.02629 20.8662 8.21983 21.0036 7.38351 21.0036C7.21625 21.0036 7.06093 20.9976 6.91756 20.9857C6.77419 20.9737 6.63082 20.9558 6.48746 20.9319C7.29988 21.4576 8.17802 21.8638 9.12186 22.1505C10.0657 22.4373 11.0514 22.5806 12.0789 22.5806C13.7515 22.5806 15.233 22.264 16.5233 21.6308C17.8136 20.9976 18.8949 20.1852 19.767 19.1936C20.6392 18.2019 21.3023 17.0908 21.7563 15.8602C22.2103 14.6296 22.4373 13.417 22.4373 12.2222V11.7563Z" fill="#252525"/>
</svg>

<svg width="30" height="30" fill="none" xmlns="http://www.w3.org/2000/svg"><path d="M14.982 0c2.079 0 4.026.394 5.842 1.183a15.433 15.433 0 0 1 4.767 3.208 15.06 15.06 0 0 1 3.226 4.749C29.606 10.956 30 12.903 30 14.982c0 2.079-.394 4.026-1.183 5.842a15.276 15.276 0 0 1-3.226 4.767 15.276 15.276 0 0 1-4.767 3.226C19.008 29.606 17.061 30 14.982 30c-2.079 0-4.026-.394-5.842-1.183a15.06 15.06 0 0 1-4.75-3.226 15.433 15.433 0 0 1-3.207-4.767C.394 19.008 0 17.061 0 14.982c0-2.079.394-4.026 1.183-5.842A15.212 15.212 0 0 1 4.39 4.39a15.212 15.212 0 0 1 4.75-3.206C10.956.394 12.903 0 14.982 0Zm7.455 11.756a8.642 8.642 0 0 0 1.828-1.9 7.706 7.706 0 0 1-2.115.573 4.144 4.144 0 0 0 1.004-.877c.287-.346.49-.723.61-1.13-.359.192-.73.365-1.112.52a5.822 5.822 0 0 1-1.183.341 4.196 4.196 0 0 0-1.182-.824 3.472 3.472 0 0 0-1.506-.323 3.53 3.53 0 0 0-1.415.287 3.51 3.51 0 0 0-1.147.788c-.323.335-.58.723-.771 1.165a3.53 3.53 0 0 0-.287 1.416c0 .143.006.287.018.43.012.144.03.275.054.395a10.037 10.037 0 0 1-4.194-1.112 10.278 10.278 0 0 1-3.297-2.688 3.447 3.447 0 0 0-.502 1.828c0 .621.15 1.2.448 1.739.299.537.687.973 1.165 1.308-.621-.048-1.17-.203-1.649-.466v.036c0 .908.281 1.69.843 2.347a3.623 3.623 0 0 0 2.096 1.237 3.951 3.951 0 0 1-.484.107 3.179 3.179 0 0 1-.824.018 3.963 3.963 0 0 1-.34-.053 3.74 3.74 0 0 0 1.272 1.792c.61.478 1.32.716 2.133.716a7.06 7.06 0 0 1-2.097 1.165 7.2 7.2 0 0 1-2.885.395 5.305 5.305 0 0 1-.43-.054c.812.526 1.69.932 2.634 1.219.944.286 1.93.43 2.957.43 1.672 0 3.154-.317 4.444-.95s2.372-1.446 3.244-2.437a10.521 10.521 0 0 0 1.99-3.334c.453-1.23.68-2.443.68-3.638v-.466Z" fill="#252525"/></svg>
